assets/web/icons/check-circle-solid.svg

<svg width="24" height="24" viewBox="0 0 24 24" fill="none" xmlns="http://www.w3.org/2000/svg">
<path d="M10.6 13.8L8.45 11.65C8.26667 11.4667 8.03333 11.375 7.75 11.375C7.46667 11.375 7.23333 11.4667 7.05 11.65C6.86667 11.8333 6.775 12.0667 6.775 12.35C6.775 12.6333 6.86667 12.8667 7.05 13.05L9.9 15.9C10.1 16.1 10.3333 16.2 10.6 16.2C10.8667 16.2 11.1 16.1 11.3 15.9L16.95 10.25C17.1333 10.0667 17.225 9.83333 17.225 9.55C17.225 9.26667 17.1333 9.03333 16.95 8.85C16.7667 8.66667 16.5333 8.575 16.25 8.575C15.9667 8.575 15.7333 8.66667 15.55 8.85L10.6 13.8ZM12 22C10.6167 22 9.31667 21.7375 8.1 21.2125C6.88333 20.6875 5.825 19.975 4.925 19.075C4.025 18.175 3.3125 17.1167 2.7875 15.9C2.2625 14.6833 2 13.3833 2 12C2 10.6167 2.2625 9.31667 2.7875 8.1C3.3125 6.88333 4.025 5.825 4.925 4.925C5.825 4.025 6.88333 3.3125 8.1 2.7875C9.31667 2.2625 10.6167 2 12 2C13.3833 2 14.6833 2.2625 15.9 2.7875C17.1167 3.3125 18.175 4.025 19.075 4.925C19.975 5.825 20.6875 6.88333 21.2125 8.1C21.7375 9.31667 22 10.6167 22 12C22 13.3833 21.7375 14.6833 21.2125 15.9C20.6875 17.1167 19.975 18.175 19.075 19.075C18.175 19.975 17.1167 20.6875 15.9 21.2125C14.6833 21.7375 13.3833 22 12 22Z" fill="currentColor"/>
</svg>

<svg xmlns="http://www.w3.org/2000/svg" width="24" height="24" fill="currentColor" viewBox="0 0 24 24">
  <path d="m10.6 13.8-2.15-2.15a.948.948 0 0 0-.7-.275.948.948 0 0 0-.7.275.948.948 0 0 0-.275.7.95.95 0 0 0 .275.7L9.9 15.9c.2.2.433.3.7.3.267 0 .5-.1.7-.3l5.65-5.65a.948.948 0 0 0 .275-.7.948.948 0 0 0-.275-.7.948.948 0 0 0-.7-.275.948.948 0 0 0-.7.275L10.6 13.8ZM12 22a9.738 9.738 0 0 1-3.9-.788 10.099 10.099 0 0 1-3.175-2.137c-.9-.9-1.612-1.958-2.137-3.175A9.738 9.738 0 0 1 2 12a9.74 9.74 0 0 1 .788-3.9 10.099 10.099 0 0 1 2.137-3.175c.9-.9 1.958-1.612 3.175-2.137A9.738 9.738 0 0 1 12 2a9.74 9.74 0 0 1 3.9.788 10.098 10.098 0 0 1 3.175 2.137c.9.9 1.613 1.958 2.137 3.175A9.738 9.738 0 0 1 22 12a9.738 9.738 0 0 1-.788 3.9 10.098 10.098 0 0 1-2.137 3.175c-.9.9-1.958 1.613-3.175 2.137A9.738 9.738 0 0 1 12 22Z"/>
</svg>
